src/assets/filled/Celsius.svg

<?xml version="1.0" encoding="UTF-8"?>
<svg width="24" height="24" viewBox="0 0 24 24" xmlns="http://www.w3.org/2000/svg">
 <path d="m12 2c-5.52 0-10 4.48-10 10s4.48 10 10 10 10-4.48 10-10-4.48-10-10-10zm4.93 13.74c-1.18 1.56-2.98 2.45-4.93 2.45-3.41 0-6.19-2.78-6.19-6.19s2.78-6.19 6.19-6.19c1.35 0 2.64 0.43 3.72 1.24 0.33 0.25 0.4 0.72001 0.15 1.05s-0.72 0.39999-1.05 0.14999c-0.82-0.62-1.79-0.94-2.82-0.94-2.58 0-4.69 2.1-4.69 4.69s2.1 4.69 4.69 4.69c1.48 0 2.84-0.68 3.74-1.86 0.25-0.33 0.72-0.39 1.05-0.14s0.39 0.72 0.14 1.05zm0.49-4.4c-0.65 0-1.17-0.52-1.17-1.17s0.52-1.17 1.17-1.17 1.17 0.52 1.17 1.17-0.52 1.17-1.17 1.17z"/>
</svg>

<svg width="24" height="24" viewBox="0 0 24 24"  xmlns="http://www.w3.org/2000/svg">
<path d="M12 2C6.48 2 2 6.48 2 12C2 17.52 6.48 22 12 22C17.52 22 22 17.52 22 12C22 6.48 17.52 2 12 2ZM16.93 15.74C15.75 17.3 13.95 18.19 12 18.19C8.59 18.19 5.81 15.41 5.81 12C5.81 8.59 8.59 5.81 12 5.81C13.35 5.81 14.64 6.24 15.72 7.05C16.05 7.3 16.12 7.77001 15.87 8.10001C15.62 8.43001 15.15 8.5 14.82 8.25C14 7.63 13.03 7.31 12 7.31C9.42 7.31 7.31 9.41 7.31 12C7.31 14.59 9.41 16.69 12 16.69C13.48 16.69 14.84 16.01 15.74 14.83C15.99 14.5 16.46 14.44 16.79 14.69C17.12 14.94 17.18 15.41 16.93 15.74ZM17.42 11.34C16.77 11.34 16.25 10.82 16.25 10.17C16.25 9.52 16.77 9 17.42 9C18.07 9 18.59 9.52 18.59 10.17C18.59 10.82 18.07 11.34 17.42 11.34Z" />
</svg>
